X:1
T:Title
%%score { ( 1 3 ) | ( 2 4 ) }
L:1/8
M:6/8
K:C
V:1 treble nm="Grand Piano"
V:3 treble 
V:2 bass 
V:4 bass 
V:1
 z3 z2[Q:1/4=100] [EG] | [EG]2 [CE] [CE]2 [EG] | [Ec]3- [Ec]2 [Ec] | .e3 z3 | %4
[M:5/8] [EG]-[EG]- [EG]3 |[M:1/8] [EG] |[M:3/4] [EG]2 [CE] [CE]2 [EG] | [Gc]2 [FB] [Ec]2 [Ge] | %8
 [Gd]c B c2 [^FA] |[M:5/8] G-G- G3 |[M:1/8] E |[M:3/4] F2 G A2 B | c4- cG | A2 B c2 [Ad] | %14
[M:5/8] [^Ge]-[Ge]- [Ge]3 |[M:1/8] c |[M:3/4] A2 c G2 [Gc] | A2 c G2 [Ec] | [Ge]2 [Gc] [Fd]2 [FB] | %19
[M:5/8] [Ec]-[Ec]- [Ec]3 |] %20
V:2
 z3 z2 [C,C] | [C,C]2 [C,G,] [C,G,]2 [C,G,] | [C,G,]3- [C,G,]2 [C,G,] | %3
 [C,C][D,B,][E,C] [F,C]2 [F,C] |[M:5/8] [C,C]-[C,C]- [C,C]3 |[M:1/8] [C,C] | %6
[M:3/4] [C,C]2 [C,G,] [C,G,]2 [C,C] | [E,C]2 [D,G,] [C,G,]2 [C,C] | %8
 B,[A,D] [D,G,D] [D,A,D]2 [D,C] |[M:5/8] [G,B,]-[G,B,]- [G,B,]3 |[M:1/8] E, | %11
[M:3/4] F,2 G, A,2 B, | C4- C[E,G,E] | [F,A,F]2 [G,B,G] [A,CA]2[K:bass] [F,A,] | %14
[M:5/8] [E,B,]-[E,B,]- [E,B,]3 |[M:1/8] [A,CE] | %16
[M:3/4][K:treble] [F,CF]2 [A,CF] [CE]2[K:bass] [E,C] | %17
 [F,CF]2[K:treble] [A,CF] [CE]2[K:bass] [C,C] | [C,C]2 [E,C] [G,B,]2 [G,D] | %19
[M:5/8] [C,C]-[C,C]- [C,C]3 |] %20
V:3
 x6 | x6 | x6 | G-[Gd][Gc] [Ac]2 [FA] |[M:5/8] x5 |[M:1/8] x |[M:3/4] x6 | x6 | x6 |[M:5/8] x5 | %10
[M:1/8] x |[M:3/4] x6 | x6 | x6 |[M:5/8] x5 |[M:1/8] x |[M:3/4] x6 | x6 | x6 |[M:5/8] x5 |] %20
V:4
 x6 | x6 | x6 | x6 |[M:5/8] x5 |[M:1/8] x |[M:3/4] x6 | x6 | D,2 z2 z2 |[M:5/8] x5 |[M:1/8] x | %11
[M:3/4] x6 | x6 | x5[K:bass] x |[M:5/8] x5 |[M:1/8] x |[M:3/4][K:treble] x5[K:bass] x | %17
 x2[K:treble] x3[K:bass] x | x6 |[M:5/8] x5 |] %20

